components/Common/Svg/svgs/appstore.svg

<svg
  width="201"
  height="67"
  viewBox="-1 -1 203 69"
  fill="none"
  xmlns="http://www.w3.org/2000/svg"
>
  <path
    d="M136.556 32.1616V35.9991H134.151V38.5156H136.556V47.0665C136.556 49.9863 137.877 51.1542 141.2 51.1542C141.784 51.1542 142.34 51.0847 142.827 51.0013V48.5125C142.41 48.5542 142.146 48.582 141.687 48.582C140.199 48.582 139.545 47.8868 139.545 46.3018V38.5156H142.827V35.9991H139.545V32.1616H136.556Z"
    fill="white"
  ></path>
  <path
    d="M151.292 51.3628C155.713 51.3628 158.425 48.4013 158.425 43.4932C158.425 38.613 155.699 35.6376 151.292 35.6376C146.871 35.6376 144.145 38.613 144.145 43.4932C144.145 48.4013 146.857 51.3628 151.292 51.3628ZM151.292 48.7071C148.692 48.7071 147.232 46.8023 147.232 43.4932C147.232 40.2119 148.692 38.2932 151.292 38.2932C153.878 38.2932 155.352 40.2119 155.352 43.4932C155.352 46.7884 153.878 48.7071 151.292 48.7071Z"
    fill="white"
  ></path>
  <path
    d="M160.744 51.0708H163.734V42.1306C163.734 40.0033 165.333 38.5713 167.599 38.5713C168.127 38.5713 169.017 38.6686 169.267 38.752V35.8044C168.948 35.721 168.378 35.6793 167.933 35.6793C165.958 35.6793 164.276 36.7638 163.845 38.2515H163.622V35.9295H160.744V51.0708Z"
    fill="white"
  ></path>
  <path
    d="M176.69 38.1819C178.9 38.1819 180.346 39.7253 180.416 42.1028H172.769C172.936 39.7392 174.479 38.1819 176.69 38.1819ZM180.402 46.9831C179.846 48.1649 178.609 48.8184 176.801 48.8184C174.41 48.8184 172.866 47.136 172.769 44.4804V44.3135H183.461V43.2707C183.461 38.5156 180.917 35.6376 176.704 35.6376C172.435 35.6376 169.724 38.7103 169.724 43.5488C169.724 48.3873 172.38 51.3628 176.718 51.3628C180.18 51.3628 182.599 49.6943 183.28 46.9831H180.402Z"
    fill="white"
  ></path>
  <path
    d="M116.953 45.4794C117.183 49.1974 120.282 51.5752 124.893 51.5752C129.822 51.5752 132.906 49.0821 132.906 45.1047C132.906 41.9775 131.147 40.2482 126.882 39.2539L124.59 38.6918C121.881 38.0577 120.786 37.2075 120.786 35.7232C120.786 33.8498 122.486 32.6248 125.037 32.6248C127.458 32.6248 129.13 33.8209 129.432 35.7376H132.574C132.387 32.2357 129.303 29.7715 125.08 29.7715C120.541 29.7715 117.515 32.2357 117.515 35.9393C117.515 38.9945 119.23 40.8102 122.991 41.6893L125.671 42.3378C128.424 42.9863 129.634 43.9374 129.634 45.5226C129.634 47.3672 127.732 48.7074 125.138 48.7074C122.357 48.7074 120.426 47.4536 120.152 45.4794H116.953Z"
    fill="white"
  ></path>
  <path
    d="M85.9864 35.6793C83.9286 35.6793 82.1489 36.7081 81.2313 38.4322H81.0088V35.9295H78.1307V56.104H81.1201V48.7767H81.3564C82.1489 50.3756 83.8591 51.3211 86.0142 51.3211C89.8377 51.3211 92.2709 48.3039 92.2709 43.4932C92.2709 38.6825 89.8377 35.6793 85.9864 35.6793ZM85.1383 48.6376C82.6356 48.6376 81.0644 46.6633 81.0644 43.5071C81.0644 40.337 82.6356 38.3627 85.1522 38.3627C87.6827 38.3627 89.1982 40.2953 89.1982 43.4932C89.1982 46.705 87.6827 48.6376 85.1383 48.6376Z"
    fill="white"
  ></path>
  <path
    d="M102.731 35.6793C100.673 35.6793 98.8936 36.7081 97.9759 38.4322H97.7535V35.9295H94.8754V56.104H97.8647V48.7767H98.1011C98.8936 50.3756 100.604 51.3211 102.759 51.3211C106.582 51.3211 109.016 48.3039 109.016 43.4932C109.016 38.6825 106.582 35.6793 102.731 35.6793ZM101.883 48.6376C99.3802 48.6376 97.8091 46.6633 97.8091 43.5071C97.8091 40.337 99.3802 38.3627 101.897 38.3627C104.427 38.3627 105.943 40.2953 105.943 43.4932C105.943 46.705 104.427 48.6376 101.883 48.6376Z"
    fill="white"
  ></path>
  <path
    d="M72.7674 51.0708H76.1972L68.6891 30.2759H65.2161L57.708 51.0708H61.0225L62.9392 45.5514H70.8651L72.7674 51.0708ZM66.7869 34.0515H67.0319L70.0437 42.8422H63.7606L66.7869 34.0515Z"
    fill="white"
  ></path>
  <path
    d="M59.7158 14.5908V24.6224H63.3378C66.3271 24.6224 68.0581 22.7801 68.0581 19.5753C68.0581 16.4191 66.3132 14.5908 63.3378 14.5908H59.7158ZM61.273 16.0089H63.164C65.2426 16.0089 66.4731 17.3298 66.4731 19.5961C66.4731 21.8972 65.2634 23.2042 63.164 23.2042H61.273V16.0089Z"
    fill="white"
  ></path>
  <path
    d="M73.3596 24.7683C75.5703 24.7683 76.926 23.2876 76.926 20.8336C76.926 18.3934 75.5634 16.9057 73.3596 16.9057C71.1489 16.9057 69.7863 18.3934 69.7863 20.8336C69.7863 23.2876 71.142 24.7683 73.3596 24.7683ZM73.3596 23.4405C72.0596 23.4405 71.3297 22.4881 71.3297 20.8336C71.3297 19.1929 72.0596 18.2336 73.3596 18.2336C74.6527 18.2336 75.3896 19.1929 75.3896 20.8336C75.3896 22.4812 74.6527 23.4405 73.3596 23.4405Z"
    fill="white"
  ></path>
  <path
    d="M88.4703 17.0517H86.9756L85.627 22.8288H85.5088L83.9515 17.0517H82.5195L80.9622 22.8288H80.851L79.4954 17.0517H77.9799L80.0654 24.6224H81.6018L83.159 19.0469H83.2772L84.8414 24.6224H86.3917L88.4703 17.0517Z"
    fill="white"
  ></path>
  <path
    d="M90.1916 24.6224H91.6862V20.194C91.6862 19.0122 92.3884 18.2753 93.4937 18.2753C94.5991 18.2753 95.1274 18.8801 95.1274 20.0967V24.6224H96.6221V19.7213C96.6221 17.9207 95.6905 16.9057 94.0012 16.9057C92.8611 16.9057 92.1103 17.4132 91.7419 18.2544H91.6306V17.0517H90.1916V24.6224Z"
    fill="white"
  ></path>
  <path
    d="M98.976 24.6224H100.471V14.0972H98.976V24.6224Z"
    fill="white"
  ></path>
  <path
    d="M106.092 24.7683C108.303 24.7683 109.658 23.2876 109.658 20.8336C109.658 18.3934 108.296 16.9057 106.092 16.9057C103.881 16.9057 102.519 18.3934 102.519 20.8336C102.519 23.2876 103.874 24.7683 106.092 24.7683ZM106.092 23.4405C104.792 23.4405 104.062 22.4881 104.062 20.8336C104.062 19.1929 104.792 18.2336 106.092 18.2336C107.385 18.2336 108.122 19.1929 108.122 20.8336C108.122 22.4812 107.385 23.4405 106.092 23.4405Z"
    fill="white"
  ></path>
  <path
    d="M114.112 23.4892C113.298 23.4892 112.707 23.0929 112.707 22.4116C112.707 21.7443 113.18 21.3897 114.223 21.3202L116.072 21.202V21.8346C116.072 22.7731 115.238 23.4892 114.112 23.4892ZM113.729 24.7475C114.723 24.7475 115.551 24.3165 116.003 23.5587H116.121V24.6224H117.56V19.4501C117.56 17.8512 116.489 16.9057 114.591 16.9057C112.874 16.9057 111.651 17.74 111.498 19.04H112.944C113.111 18.5047 113.688 18.1988 114.522 18.1988C115.544 18.1988 116.072 18.6507 116.072 19.4501V20.1036L114.021 20.2218C112.221 20.333 111.206 21.1186 111.206 22.4812C111.206 23.8646 112.269 24.7475 113.729 24.7475Z"
    fill="white"
  ></path>
  <path
    d="M122.632 24.7475C123.675 24.7475 124.558 24.2539 125.009 23.4266H125.128V24.6224H126.56V14.0972H125.065V18.2544H124.954C124.544 17.4202 123.668 16.9266 122.632 16.9266C120.72 16.9266 119.49 18.4421 119.49 20.8336C119.49 23.232 120.706 24.7475 122.632 24.7475ZM123.056 18.2683C124.307 18.2683 125.093 19.2624 125.093 20.8405C125.093 22.4256 124.314 23.4058 123.056 23.4058C121.791 23.4058 121.033 22.4395 121.033 20.8336C121.033 19.2416 121.798 18.2683 123.056 18.2683Z"
    fill="white"
  ></path>
  <path
    d="M136.252 24.7683C138.463 24.7683 139.818 23.2876 139.818 20.8336C139.818 18.3934 138.456 16.9057 136.252 16.9057C134.041 16.9057 132.679 18.3934 132.679 20.8336C132.679 23.2876 134.034 24.7683 136.252 24.7683ZM136.252 23.4405C134.952 23.4405 134.222 22.4881 134.222 20.8336C134.222 19.1929 134.952 18.2336 136.252 18.2336C137.545 18.2336 138.282 19.1929 138.282 20.8336C138.282 22.4812 137.545 23.4405 136.252 23.4405Z"
    fill="white"
  ></path>
  <path
    d="M141.797 24.6224H143.292V20.194C143.292 19.0122 143.994 18.2753 145.099 18.2753C146.204 18.2753 146.733 18.8801 146.733 20.0967V24.6224H148.227V19.7213C148.227 17.9207 147.296 16.9057 145.607 16.9057C144.466 16.9057 143.716 17.4132 143.347 18.2544H143.236V17.0517H141.797V24.6224Z"
    fill="white"
  ></path>
  <path
    d="M155.111 15.1678V17.0865H153.909V18.3448H155.111V22.6202C155.111 24.0801 155.772 24.6641 157.433 24.6641C157.725 24.6641 158.003 24.6293 158.247 24.5876V23.3432C158.038 23.3641 157.906 23.378 157.676 23.378C156.933 23.378 156.606 23.0304 156.606 22.2378V18.3448H158.247V17.0865H156.606V15.1678H155.111Z"
    fill="white"
  ></path>
  <path
    d="M160.253 24.6224H161.748V20.2009C161.748 19.0539 162.429 18.2822 163.652 18.2822C164.709 18.2822 165.272 18.894 165.272 20.1036V24.6224H166.767V19.7352C166.767 17.9346 165.773 16.9127 164.16 16.9127C163.02 16.9127 162.22 17.4202 161.852 18.2683H161.734V14.0972H160.253V24.6224Z"
    fill="white"
  ></path>
  <path
    d="M172.159 18.1779C173.264 18.1779 173.987 18.9496 174.022 20.1384H170.198C170.282 18.9565 171.053 18.1779 172.159 18.1779ZM174.015 22.5785C173.737 23.1694 173.118 23.4961 172.214 23.4961C171.019 23.4961 170.247 22.655 170.198 21.3271V21.2437H175.544V20.7223C175.544 18.3448 174.272 16.9057 172.166 16.9057C170.031 16.9057 168.676 18.4421 168.676 20.8614C168.676 23.2806 170.004 24.7683 172.173 24.7683C173.904 24.7683 175.113 23.9341 175.454 22.5785H174.015Z"
    fill="white"
  ></path>
  <path
    d="M41.4876 34.0036C41.5239 31.1879 43.0361 28.5236 45.4349 27.0489C43.9216 24.8876 41.3868 23.5172 38.7497 23.4347C35.937 23.1395 33.2101 25.1178 31.7768 25.1178C30.3158 25.1178 28.109 23.464 25.7326 23.5129C22.6351 23.613 19.7475 25.3741 18.2405 28.0821C15.001 33.6907 17.4173 41.9335 20.5205 46.4671C22.073 48.687 23.8875 51.1668 26.2617 51.0788C28.5851 50.9825 29.4528 49.5973 32.2572 49.5973C35.0357 49.5973 35.8498 51.0788 38.2722 51.0229C40.7652 50.9825 42.3359 48.7931 43.834 46.5521C44.9495 44.9703 45.8079 43.2221 46.3774 41.3722C43.4476 40.133 41.4911 37.1846 41.4876 34.0036Z"
    fill="white"
  ></path>
  <path
    d="M36.9121 20.4532C38.2714 18.8214 38.9411 16.724 38.7789 14.6064C36.7022 14.8246 34.7839 15.8171 33.4062 17.3863C32.0591 18.9195 31.358 20.98 31.4905 23.0166C33.568 23.038 35.6103 22.0724 36.9121 20.4532Z"
    fill="white"
  ></path>
  <path
    d="M4.93853 66.391L4.55585 67.3149L4.93853 66.391ZM200.391 62.0615L201.315 62.4442L200.391 62.0615ZM196.061 66.391L195.679 65.4672L196.061 66.391ZM196.061 0.608964L195.679 1.53284L196.061 0.608964ZM12 1H189V-1H12V1ZM200 12V55H202V12H200ZM189 66H12V68H189V66ZM1 55V12H-1V55H1ZM12 66C10.1226 66 8.76455 65.9995 7.69083 65.9262C6.62609 65.8536 5.91414 65.7128 5.32122 65.4672L4.55585 67.3149C5.43309 67.6783 6.38811 67.842 7.55468 67.9216C8.71227 68.0005 10.1499 68 12 68V66ZM-1 55C-1 56.8501 -1.00054 58.2877 -0.92156 59.4453C-0.841966 60.6119 -0.678281 61.5669 -0.314916 62.4442L1.53284 61.6788C1.28724 61.0859 1.14645 60.3739 1.0738 59.3092C1.00054 58.2355 1 56.8775 1 55H-1ZM5.32122 65.4672C3.60602 64.7567 2.2433 63.394 1.53284 61.6788L-0.314916 62.4442C0.59853 64.6494 2.3506 66.4015 4.55585 67.3149L5.32122 65.4672ZM200 55C200 56.8775 199.999 58.2355 199.926 59.3092C199.854 60.3739 199.713 61.0859 199.467 61.6788L201.315 62.4442C201.678 61.5669 201.842 60.6119 201.922 59.4453C202.001 58.2877 202 56.8501 202 55H200ZM189 68C190.85 68 192.288 68.0005 193.445 67.9216C194.612 67.842 195.567 67.6783 196.444 67.3149L195.679 65.4672C195.086 65.7128 194.374 65.8536 193.309 65.9262C192.235 65.9995 190.877 66 189 66V68ZM199.467 61.6788C198.757 63.394 197.394 64.7567 195.679 65.4672L196.444 67.3149C198.649 66.4015 200.401 64.6494 201.315 62.4442L199.467 61.6788ZM189 1C190.877 1 192.235 1.00054 193.309 1.0738C194.374 1.14645 195.086 1.28724 195.679 1.53284L196.444 -0.314916C195.567 -0.678281 194.612 -0.841966 193.445 -0.92156C192.288 -1.00054 190.85 -1 189 -1V1ZM202 12C202 10.1499 202.001 8.71227 201.922 7.55468C201.842 6.38811 201.678 5.43309 201.315 4.55585L199.467 5.32122C199.713 5.91414 199.854 6.62609 199.926 7.69083C199.999 8.76455 200 10.1226 200 12H202ZM195.679 1.53284C197.394 2.2433 198.757 3.60602 199.467 5.32122L201.315 4.55585C200.401 2.3506 198.649 0.59853 196.444 -0.314916L195.679 1.53284ZM12 -1C10.1499 -1 8.71227 -1.00054 7.55468 -0.92156C6.38811 -0.841966 5.43309 -0.678281 4.55585 -0.314916L5.32122 1.53284C5.91414 1.28724 6.62609 1.14645 7.69083 1.0738C8.76455 1.00054 10.1226 1 12 1V-1ZM1 12C1 10.1226 1.00054 8.76455 1.0738 7.69083C1.14645 6.62609 1.28724 5.91414 1.53284 5.32122L-0.314916 4.55585C-0.678281 5.43309 -0.841966 6.38811 -0.92156 7.55468C-1.00054 8.71227 -1 10.1499 -1 12H1ZM4.55585 -0.314916C2.3506 0.59853 0.59853 2.3506 -0.314916 4.55585L1.53284 5.32122C2.2433 3.60602 3.60602 2.2433 5.32122 1.53284L4.55585 -0.314916Z"
    fill="white"
  ></path>
</svg>

<svg width="201" height="67" viewBox="-1 -1 203 69" fill="none" xmlns="http://www.w3.org/2000/svg"><path d="M136.556 32.162v3.837h-2.405v2.517h2.405v8.55c0 2.92 1.321 4.088 4.644 4.088.584 0 1.14-.07 1.627-.153v-2.488c-.417.041-.681.069-1.14.069-1.488 0-2.142-.695-2.142-2.28v-7.786h3.282v-2.517h-3.282v-3.837h-2.989ZM151.292 51.363c4.421 0 7.133-2.962 7.133-7.87 0-4.88-2.726-7.855-7.133-7.855-4.421 0-7.147 2.975-7.147 7.855 0 4.908 2.712 7.87 7.147 7.87Zm0-2.656c-2.6 0-4.06-1.905-4.06-5.214 0-3.281 1.46-5.2 4.06-5.2 2.586 0 4.06 1.919 4.06 5.2 0 3.295-1.474 5.214-4.06 5.214ZM160.744 51.07h2.99v-8.94c0-2.127 1.599-3.559 3.865-3.559.528 0 1.418.098 1.668.181v-2.948c-.319-.083-.889-.125-1.334-.125-1.975 0-3.657 1.085-4.088 2.572h-.223V35.93h-2.878v15.142ZM176.69 38.182c2.21 0 3.656 1.543 3.726 3.92h-7.647c.167-2.363 1.71-3.92 3.921-3.92Zm3.712 8.801c-.556 1.182-1.793 1.835-3.601 1.835-2.391 0-3.935-1.682-4.032-4.338v-.166h10.692V43.27c0-4.755-2.544-7.633-6.757-7.633-4.269 0-6.98 3.072-6.98 7.91 0 4.84 2.656 7.815 6.994 7.815 3.462 0 5.881-1.669 6.562-4.38h-2.878ZM116.953 45.48c.23 3.717 3.329 6.095 7.94 6.095 4.929 0 8.013-2.493 8.013-6.47 0-3.127-1.759-4.857-6.024-5.851l-2.292-.562c-2.709-.634-3.804-1.484-3.804-2.969 0-1.873 1.7-3.098 4.251-3.098 2.421 0 4.093 1.196 4.395 3.113h3.142c-.187-3.502-3.271-5.966-7.494-5.966-4.539 0-7.565 2.464-7.565 6.167 0 3.056 1.715 4.871 5.476 5.75l2.68.649c2.753.648 3.963 1.6 3.963 3.185 0 1.844-1.902 3.184-4.496 3.184-2.781 0-4.712-1.253-4.986-3.228h-3.199ZM85.986 35.68c-2.057 0-3.837 1.028-4.755 2.752h-.222V35.93H78.13v20.175h2.99v-7.327h.235c.793 1.599 2.503 2.544 4.658 2.544 3.824 0 6.257-3.017 6.257-7.828 0-4.81-2.433-7.814-6.285-7.814Zm-.848 12.958c-2.502 0-4.074-1.975-4.074-5.13 0-3.171 1.572-5.145 4.088-5.145 2.53 0 4.046 1.932 4.046 5.13 0 3.212-1.515 5.145-4.06 5.145ZM102.731 35.68c-2.058 0-3.837 1.028-4.755 2.752h-.222V35.93h-2.879v20.175h2.99v-7.327h.236c.793 1.599 2.503 2.544 4.658 2.544 3.823 0 6.257-3.017 6.257-7.828 0-4.81-2.434-7.814-6.285-7.814Zm-.848 12.958c-2.503 0-4.074-1.975-4.074-5.13 0-3.171 1.571-5.145 4.088-5.145 2.53 0 4.046 1.932 4.046 5.13 0 3.212-1.516 5.145-4.06 5.145ZM72.767 51.07h3.43L68.69 30.277h-3.473L57.708 51.07h3.315l1.916-5.52h7.926l1.902 5.52Zm-5.98-17.019h.245l3.012 8.791H63.76l3.026-8.79ZM59.716 14.59v10.032h3.622c2.99 0 4.72-1.842 4.72-5.047 0-3.156-1.745-4.984-4.72-4.984h-3.622Zm1.557 1.419h1.891c2.079 0 3.31 1.32 3.31 3.587 0 2.301-1.21 3.608-3.31 3.608h-1.891V16.01ZM73.36 24.768c2.21 0 3.566-1.48 3.566-3.934 0-2.44-1.363-3.928-3.566-3.928-2.211 0-3.574 1.487-3.574 3.928 0 2.454 1.356 3.934 3.574 3.934Zm0-1.328c-1.3 0-2.03-.952-2.03-2.606 0-1.641.73-2.6 2.03-2.6 1.293 0 2.03.959 2.03 2.6 0 1.647-.737 2.607-2.03 2.607ZM88.47 17.052h-1.494l-1.349 5.777h-.118l-1.558-5.777H82.52l-1.558 5.777h-.111l-1.356-5.777H77.98l2.085 7.57h1.537l1.557-5.575h.118l1.564 5.575h1.55l2.08-7.57ZM90.192 24.622h1.494v-4.428c0-1.182.702-1.919 1.808-1.919 1.105 0 1.633.605 1.633 1.822v4.525h1.495v-4.9c0-1.801-.931-2.816-2.62-2.816-1.14 0-1.892.507-2.26 1.348h-.111v-1.202h-1.44v7.57ZM98.976 24.622h1.495V14.097h-1.495v10.525ZM106.092 24.768c2.211 0 3.566-1.48 3.566-3.934 0-2.44-1.362-3.928-3.566-3.928-2.211 0-3.573 1.487-3.573 3.928 0 2.454 1.355 3.934 3.573 3.934Zm0-1.328c-1.3 0-2.03-.952-2.03-2.606 0-1.641.73-2.6 2.03-2.6 1.293 0 2.03.959 2.03 2.6 0 1.647-.737 2.607-2.03 2.607ZM114.112 23.49c-.814 0-1.405-.397-1.405-1.078 0-.668.473-1.022 1.516-1.092l1.849-.118v.633c0 .938-.834 1.654-1.96 1.654Zm-.383 1.258c.994 0 1.822-.431 2.274-1.19h.118v1.064h1.439V19.45c0-1.599-1.071-2.544-2.969-2.544-1.717 0-2.94.834-3.093 2.134h1.446c.167-.535.744-.841 1.578-.841 1.022 0 1.55.452 1.55 1.251v.654l-2.051.118c-1.8.111-2.815.897-2.815 2.26 0 1.383 1.063 2.265 2.523 2.265ZM122.632 24.747c1.043 0 1.926-.493 2.377-1.32h.119v1.195h1.432V14.097h-1.495v4.157h-.111c-.41-.834-1.286-1.327-2.322-1.327-1.912 0-3.142 1.515-3.142 3.907 0 2.398 1.216 3.913 3.142 3.913Zm.424-6.479c1.251 0 2.037.994 2.037 2.572 0 1.586-.779 2.566-2.037 2.566-1.265 0-2.023-.966-2.023-2.572 0-1.592.765-2.566 2.023-2.566ZM136.252 24.768c2.211 0 3.566-1.48 3.566-3.934 0-2.44-1.362-3.928-3.566-3.928-2.211 0-3.573 1.487-3.573 3.928 0 2.454 1.355 3.934 3.573 3.934Zm0-1.328c-1.3 0-2.03-.952-2.03-2.606 0-1.641.73-2.6 2.03-2.6 1.293 0 2.03.959 2.03 2.6 0 1.647-.737 2.607-2.03 2.607ZM141.797 24.622h1.495v-4.428c0-1.182.702-1.919 1.807-1.919s1.634.605 1.634 1.822v4.525h1.494v-4.9c0-1.801-.931-2.816-2.62-2.816-1.141 0-1.891.507-2.26 1.348h-.111v-1.202h-1.439v7.57ZM155.111 15.168v1.919h-1.202v1.258h1.202v4.275c0 1.46.661 2.044 2.322 2.044.292 0 .57-.035.814-.076v-1.245c-.209.021-.341.035-.571.035-.743 0-1.07-.348-1.07-1.14v-3.893h1.641v-1.258h-1.641v-1.92h-1.495ZM160.253 24.622h1.495v-4.421c0-1.147.681-1.919 1.904-1.919 1.057 0 1.62.612 1.62 1.822v4.518h1.495v-4.887c0-1.8-.994-2.822-2.607-2.822-1.14 0-1.94.507-2.308 1.355h-.118v-4.17h-1.481v10.524ZM172.159 18.178c1.105 0 1.828.772 1.863 1.96h-3.824c.084-1.182.855-1.96 1.961-1.96Zm1.856 4.4c-.278.591-.897.918-1.801.918-1.195 0-1.967-.841-2.016-2.169v-.083h5.346v-.522c0-2.377-1.272-3.816-3.378-3.816-2.135 0-3.49 1.536-3.49 3.955 0 2.42 1.328 3.907 3.497 3.907 1.731 0 2.94-.834 3.281-2.19h-1.439ZM41.488 34.004a8.356 8.356 0 0 1 3.947-6.955 8.59 8.59 0 0 0-6.685-3.614c-2.813-.295-5.54 1.683-6.973 1.683-1.461 0-3.668-1.654-6.044-1.605a8.976 8.976 0 0 0-7.492 4.57c-3.24 5.608-.824 13.85 2.28 18.384 1.552 2.22 3.366 4.7 5.74 4.612 2.324-.096 3.192-1.482 5.996-1.482 2.779 0 3.593 1.482 6.015 1.426 2.493-.04 4.064-2.23 5.562-4.47a18.363 18.363 0 0 0 2.543-5.18c-2.93-1.24-4.886-4.188-4.89-7.37ZM36.912 20.453a8.161 8.161 0 0 0 1.867-5.847 8.304 8.304 0 0 0-5.373 2.78 7.837 7.837 0 0 0-1.915 5.63 6.946 6.946 0 0 0 5.421-2.563ZM4.939 66.391l-.383.924.383-.924Zm195.452-4.33.924.383-.924-.383Zm-4.33 4.33-.382-.924.382.924Zm0-65.782-.382.924.382-.924ZM12 1h177v-2H12v2Zm188 11v43h2V12h-2Zm-11 54H12v2h177v-2ZM1 55V12h-2v43h2Zm11 11c-1.877 0-3.235 0-4.31-.074-1.064-.072-1.776-.213-2.369-.459l-.765 1.848c.877.363 1.832.527 2.999.607C8.712 68 10.15 68 12 68v-2ZM-1 55c0 1.85 0 3.288.078 4.445.08 1.167.244 2.122.607 3l1.848-.766c-.246-.593-.387-1.305-.46-2.37C1.002 58.236 1 56.878 1 55h-2Zm6.321 10.467a7 7 0 0 1-3.788-3.788l-1.848.765a9 9 0 0 0 4.87 4.87l.766-1.847ZM200 55c0 1.877-.001 3.236-.074 4.31-.072 1.064-.213 1.776-.459 2.369l1.848.765c.363-.877.527-1.832.607-2.999.079-1.157.078-2.595.078-4.445h-2Zm-11 13c1.85 0 3.288 0 4.445-.078 1.167-.08 2.122-.244 2.999-.607l-.765-1.848c-.593.246-1.305.387-2.37.46-1.074.072-2.432.073-4.309.073v2Zm10.467-6.321a6.999 6.999 0 0 1-3.788 3.788l.765 1.848a9.003 9.003 0 0 0 4.871-4.87l-1.848-.766ZM189 1c1.877 0 3.235 0 4.309.074 1.065.072 1.777.213 2.37.459l.765-1.848c-.877-.363-1.832-.527-2.999-.607C192.288-1 190.85-1 189-1v2Zm13 11c0-1.85.001-3.288-.078-4.445-.08-1.167-.244-2.122-.607-3l-1.848.766c.246.593.387 1.305.459 2.37.073 1.074.074 2.432.074 4.309h2Zm-6.321-10.467a6.999 6.999 0 0 1 3.788 3.788l1.848-.765a9.003 9.003 0 0 0-4.871-4.87l-.765 1.847ZM12-1c-1.85 0-3.288 0-4.445.078-1.167.08-2.122.244-3 .607l.766 1.848c.593-.246 1.305-.387 2.37-.46C8.765 1.002 10.123 1 12 1v-2ZM1 12c0-1.877 0-3.235.074-4.31.072-1.064.213-1.776.459-2.369l-1.848-.765c-.363.877-.527 1.832-.607 2.999C-1 8.712-1 10.15-1 12h2ZM4.556-.315a9 9 0 0 0-4.87 4.87l1.847.766A7 7 0 0 1 5.32 1.533L4.556-.315Z" fill="#fff"/></svg>
